X:1
T:Kigali, 86.86.86 D
T:Kigali, 86.86.86 D
T:Joseph Garrison, 1888
T:Public Domain Courtesy of the Cyber Hymnal™
C:Joseph Garrison, 1888
Z:Public Domain
Z:Courtesy of the Cyber Hymnal™
%%score 1 ( 2 3 )
L:1/8
Q:1/4=105
M:3/4
K:C
V:1 treble 
V:2 bass 
V:3 bass 
V:1
 [CE]>[DF] | [EG]2 [EG]2 [Ge]>[Ge] | [Fd]2 [Fc]2 [FA]>[FA] | [EG]2 [^D^F]2 [EG]2 | %4
 [CE]4 [CE]>[DF] | [EG]2 [EG]2 [Ge]>[Ge] | [Fd]2 [Fc]2 [FA]>[FA] | [EG]2 [Ec]2 [Fd]2 | %8
 [Ec]4 [CE]>[DF] | [EG]2 [EG]2 [Ge]>[Ge] | [Fd]2 [Fc]2 [FA]>[FA] | [EG]2 [^D^F]2 [EG]2 | %12
 [CE]4 [CE]>[DF] | [EG]2 [EG]2 [Ge]>[Ge] | [Fd]2 [Fc]2 [FA]>[FA] | [EG]2 [Ec]2 [Fd]2 | [Ec]4 | %17
 [GB]>[Gc] | [Gd]2 [Gd]2 [Ec]>[Fd] | [Ge]2 [Ge]2 [EG]>[EG] | [FA]2 [Ac]2 [FA]2 | [EG]4 [CE]>[DF] | %22
 [EG]2 [EG]2 [Ge]>[Ge] | [Fd]2 [Fc]2 [FA]>[FA] | [EG]2 [Ec]2 [Fd]2 | [Ec]4 |] %26
V:2
 [C,G,]>[C,G,] | [C,C]2 [C,C]2 [C,C]>[C,C] | [F,A,]2 [F,A,]2 [F,C]>[F,C] | [C,C]2 [C,C]2 [C,C]2 | %4
 [C,G,]4 [C,G,]>[C,G,] | [C,C]2 [C,C]2 [C,C]>[C,C] | [F,A,]2 [F,A,]2 [F,C]>[F,C] | %7
 [G,C]2 G,2 [G,,G,]2 | [C,G,]4 [C,G,]>[C,G,] | [C,C]2 [C,C]2 [C,C]>[C,C] | %10
 [F,A,]2 [F,A,]2 [F,C]>[F,C] | [C,C]2 [C,C]2 [C,C]2 | [C,G,]4 [C,G,]>[C,G,] | %13
 [C,C]2 [C,C]2 [C,C]>[C,C] | [F,A,]2 [F,A,]2 [F,C]>[F,C] | [G,C]2 G,2 [G,,G,]2 | [C,G,]4 | %17
 G,>[G,A,] | [G,B,]2 [G,B,]2 [C,C]>[C,C] | [C,C]2 [C,C]2 [C,C]>[C,C] | [F,C]2 [F,C]2 [F,C]2 | %21
 [C,C]4 [C,G,]>[C,G,] | [C,C]2 [C,C]2 [C,C]>[C,C] | [F,A,]2 [F,A,]2 [F,C]>[F,C] | %24
 [G,C]2 G,2 [G,,G,]2 | [C,G,]4 |] %26
V:3
 x2 | x6 | x6 | x6 | x6 | x6 | x6 | x2 G,2 x2 | x6 | x6 | x6 | x6 | x6 | x6 | x6 | x2 G,2 x2 | x4 | %17
 G,3/2 x/ | x6 | x6 | x6 | x6 | x6 | x6 | x2 G,2 x2 | x4 |] %26

